flags/us-nm.svg

<svg width="512" height="512" viewBox="0 0 512 512" fill="none" xmlns="http://www.w3.org/2000/svg">
<rect width="512" height="512" fill="var(--flag-palette-yellow, #ffda44)"/>
<path fill-rule="evenodd" clip-rule="evenodd" d="M238 56C244.627 56 250 61.3726 250 68V152.17C251.986 152.057 253.986 152 256 152C258.014 152 260.014 152.057 262 152.17V68C262 61.3726 267.373 56 274 56C280.627 56 286 61.3726 286 68V156.392C290.113 157.629 294.119 159.114 298 160.829V104C298 97.3726 303.373 92 310 92C316.627 92 322 97.3726 322 104V175.622C327.247 179.936 332.064 184.753 336.378 190H408C414.627 190 420 195.373 420 202C420 208.627 414.627 214 408 214H351.171C352.886 217.881 354.371 221.887 355.608 226H444C450.627 226 456 231.373 456 238C456 244.627 450.627 250 444 250H359.83C359.943 251.986 360 253.986 360 256C360 258.014 359.943 260.014 359.83 262H444C450.627 262 456 267.373 456 274C456 280.627 450.627 286 444 286H355.608C354.371 290.113 352.886 294.119 351.171 298H408C414.627 298 420 303.373 420 310C420 316.627 414.627 322 408 322H336.378C332.064 327.247 327.247 332.064 322 336.378V408C322 414.627 316.627 420 310 420C303.373 420 298 414.627 298 408V351.171C294.119 352.886 290.113 354.371 286 355.608V444C286 450.627 280.627 456 274 456C267.373 456 262 450.627 262 444V359.83C260.014 359.943 258.014 360 256 360C253.986 360 251.986 359.943 250 359.83V444C250 450.627 244.627 456 238 456C231.373 456 226 450.627 226 444V355.608C221.887 354.371 217.881 352.886 214 351.171V408C214 414.627 208.627 420 202 420C195.373 420 190 414.627 190 408V336.378C184.753 332.064 179.936 327.247 175.622 322H104C97.3726 322 92 316.627 92 310C92 303.373 97.3726 298 104 298H160.829C159.114 294.119 157.629 290.113 156.392 286H68C61.3726 286 56 280.627 56 274C56 267.373 61.3726 262 68 262H152.17C152.057 260.014 152 258.014 152 256C152 253.986 152.057 251.986 152.17 250H68C61.3726 250 56 244.627 56 238C56 231.373 61.3726 226 68 226H156.392C157.629 221.887 159.114 217.881 160.829 214H104C97.3726 214 92 208.627 92 202C92 195.373 97.3726 190 104 190H175.622C179.936 184.753 184.753 179.936 190 175.622V104C190 97.3726 195.373 92 202 92C208.627 92 214 97.3726 214 104V160.829C217.881 159.114 221.887 157.629 226 156.392V68C226 61.3726 231.373 56 238 56ZM256 336C300.183 336 336 300.183 336 256C336 211.817 300.183 176 256 176C211.817 176 176 211.817 176 256C176 300.183 211.817 336 256 336Z" fill="var(--flag-palette-bright-red, #d80027)"/>
</svg>

<svg xmlns="http://www.w3.org/2000/svg" width="512" height="512" fill="none"><path fill="var(--flag-palette-yellow, #ffda44)" d="M0 0h512v512H0z"/><path fill="var(--flag-palette-bright-red, #d80027)" fill-rule="evenodd" d="M238 56a12 12 0 0 1 12 12v84.2a106 106 0 0 1 12 0V68a12 12 0 0 1 24 0v88.4q6.2 1.8 12 4.4V104a12 12 0 0 1 24 0v71.6q7.8 6.5 14.4 14.4H408a12 12 0 0 1 0 24h-56.8q2.6 5.9 4.4 12H444a12 12 0 0 1 0 24h-84.2a106 106 0 0 1 0 12H444a12 12 0 0 1 0 24h-88.4q-1.8 6.2-4.4 12H408a12 12 0 0 1 0 24h-71.6q-6.5 7.8-14.4 14.4V408a12 12 0 0 1-24 0v-56.8q-5.8 2.6-12 4.4V444a12 12 0 0 1-24 0v-84.2a106 106 0 0 1-12 0V444a12 12 0 0 1-24 0v-88.4q-6.1-1.8-12-4.4V408a12 12 0 0 1-24 0v-71.6q-7.8-6.5-14.4-14.4H104a12 12 0 0 1 0-24h56.8q-2.6-5.8-4.4-12H68a12 12 0 0 1 0-24h84.2a106 106 0 0 1 0-12H68a12 12 0 0 1 0-24h88.4q1.8-6.1 4.4-12H104a12 12 0 0 1 0-24h71.6q6.5-7.8 14.4-14.4V104a12 12 0 0 1 24 0v56.8q5.9-2.6 12-4.4V68a12 12 0 0 1 12-12m18 280a80 80 0 1 0 0-160 80 80 0 0 0 0 160" clip-rule="evenodd"/></svg>
